svgs/sharp-solid/naira-sign.svg

<svg xmlns="http://www.w3.org/2000/svg" viewBox="0 0 448 512"><!--! Font Awesome Pro 6.6.0 by @fontawesome - https://fontawesome.com License - https://fontawesome.com/license (Commercial License) Copyright 2024 Fonticons, Inc. --><path d="M96 32L64 32l0 32 0 192-32 0L0 256l0 64 32 0 32 0 0 128 0 32 64 0 0-32 0-128 98.9 0 92.8 145.2 9.4 14.8 17.5 0 5.3 0 32 0 0-32 0-128 32 0 32 0 0-64-32 0-32 0 0-192 0-32-64 0 0 32 0 192-58 0L128.3 46.8 118.9 32l-17.5 0L96 32zM302.9 320l17.1 0 0 26.8L302.9 320zM186 256l-58 0 0-90.8L186 256z"/></svg>

<svg xmlns="http://www.w3.org/2000/svg" viewBox="0 0 448 512"><!--! Font Awesome Pro 6.5.2 by @fontawesome - https://fontawesome.com License - https://fontawesome.com/license (Commercial License) Copyright 2024 Fonticons, Inc. --><path d="M96 32H64V64 256H32 0v64H32 64V448v32h64V448 320h98.9l92.8 145.2 9.4 14.8h17.5H352h32V448 320h32 32V256H416 384V64 32H320V64 256H262L128.3 46.8 118.9 32H101.3 96zM302.9 320H320v26.8L302.9 320zM186 256H128V165.2L186 256z"/></svg>
